X: 31120
T: Paddy Fahey's
R: jig
M: 6/8
K: Gdorian
|:DGA ~B3|cBc d2 g|gfd Bcd|cAG AGF|
DGA ~B3|cBc d2 g|gfd Bcd|1 cAF G2 F:|2 cAF GBd||
|:~g2 d fga|gfd Bcd|cAA ~f3|agf def|
~g2 a bag|fdg fdc|B2 G AGF|1 DGF GBd:|2 DGF G2 F||

